src/home/img/advanced-search.svg

<svg height="80" viewBox="0 0 80 80" width="80" xmlns="http://www.w3.org/2000/svg" xmlns:xlink="http://www.w3.org/1999/xlink"><linearGradient id="a" x1="50%" x2="50%" y1="0%" y2="100%"><stop offset="0" stop-color="#3f6abc"/><stop offset="1" stop-color="#1851be"/></linearGradient><filter id="b" height="110.6%" width="110.6%" x="-5.3%" y="-5.3%"><feGaussianBlur in="SourceGraphic" stdDeviation="1.05"/></filter><radialGradient id="c" cx="57.407%" cy="0%" gradientTransform="matrix(0 1 -.87097 0 .574 -.574)" r="133.013%"><stop offset="0" stop-color="#fff"/><stop offset="1" stop-color="#aec3eb"/></radialGradient><filter id="d" height="108%" width="106.9%" x="-3.5%" y="-4%"><feGaussianBlur in="SourceGraphic" stdDeviation=".65"/></filter><mask id="e" fill="#fff"><path d="m.5 13.84c0-7.367 5.973-13.34 13.34-13.34h48.32c7.367 0 13.34 5.973 13.34 13.34v48.32c0 7.367-5.973 13.34-13.34 13.34h-48.32c-7.367 0-13.34-5.973-13.34-13.34z" fill="#fff" fill-rule="evenodd"/></mask><g fill="none" fill-rule="evenodd" transform="translate(0 2)"><g transform="translate(2)"><path d="m.5 13.84c0-7.367 5.973-13.34 13.34-13.34h48.32c7.367 0 13.34 5.973 13.34 13.34v48.32c0 7.367-5.973 13.34-13.34 13.34h-48.32c-7.367 0-13.34-5.973-13.34-13.34z" mask="url(#e)"/><path d="m.5 13.84c0-7.367 5.973-13.34 13.34-13.34h48.32c7.367 0 13.34 5.973 13.34 13.34v48.32c0 7.367-5.973 13.34-13.34 13.34h-48.32c-7.367 0-13.34-5.973-13.34-13.34z"/><path d="m.5 13.84c0-7.367 5.973-13.34 13.34-13.34h48.32c7.367 0 13.34 5.973 13.34 13.34v48.32c0 7.367-5.973 13.34-13.34 13.34h-48.32c-7.367 0-13.34-5.973-13.34-13.34z"/><g fill="url(#a)" fill-rule="nonzero" stroke="#fff" stroke-opacity=".01" stroke-width="1.68"><path d="m.5 13.84c0-7.367 5.973-13.34 13.34-13.34h48.32c7.367 0 13.34 5.973 13.34 13.34v48.32c0 7.367-5.973 13.34-13.34 13.34h-48.32c-7.367 0-13.34-5.973-13.34-13.34z" filter="url(#b)"/><path d="m.5 13.84c0-7.367 5.973-13.34 13.34-13.34h48.32c7.367 0 13.34 5.973 13.34 13.34v48.32c0 7.367-5.973 13.34-13.34 13.34h-48.32c-7.367 0-13.34-5.973-13.34-13.34z"/></g></g><g fill="url(#c)" fill-rule="nonzero" transform="matrix(.8660254 -.5 .5 .8660254 .518554 28.347269)"><path d="m46.2777778 1.81481481c0-1.00268518-.8121297-1.81481481-1.8148148-1.81481481h-7.2592593c-1.0026852 0-1.8148148.81212963-1.8148148 1.81481481v5.44444445h10.8888889zm-39.33077066 12.53763789c-.27283662 10.1611584-6.57090567 12.3677051-6.94700714 26.4190119v4.7638889c0 1.9131345 1.55766879 3.4646465 3.47839506 3.4646465h10.43518514c1.9207263 0 3.4783951-1.551512 3.4783951-3.4646465v-17.3232323h3.4783951v-17.3232323h-10.4525772c-1.91637827 0-3.41861014 1.5558428-3.47078606 3.4635638zm42.36524496 0c-.0521759-1.907721-1.5544078-3.4635638-3.4707861-3.4635638h-10.4525771v17.3232323h3.4783951v17.3232323c0 1.9131345 1.5576687 3.4646465 3.478395 3.4646465h10.4351852c1.9207263 0 3.4783951-1.551512 3.4783951-3.4646465v-4.7638889c-.3761015-14.0513068-6.6741706-16.2578535-6.9470072-26.4190119zm-30.2566965-14.3524527h-7.2592593c-1.0026852 0-1.81481482.81212963-1.81481482 1.81481481v5.44444445h10.88888892v-5.44444445c0-1.00268518-.8121297-1.81481481-1.8148148-1.81481481zm5.4444444 28.1296296h7.2592593v-17.2407407h-7.2592593z" filter="url(#d)"/><path d="m46.2777778 1.81481481c0-1.00268518-.8121297-1.81481481-1.8148148-1.81481481h-7.2592593c-1.0026852 0-1.8148148.81212963-1.8148148 1.81481481v5.44444445h10.8888889zm-39.33077066 12.53763789c-.27283662 10.1611584-6.57090567 12.3677051-6.94700714 26.4190119v4.7638889c0 1.9131345 1.55766879 3.4646465 3.47839506 3.4646465h10.43518514c1.9207263 0 3.4783951-1.551512 3.4783951-3.4646465v-17.3232323h3.4783951v-17.3232323h-10.4525772c-1.91637827 0-3.41861014 1.5558428-3.47078606 3.4635638zm42.36524496 0c-.0521759-1.907721-1.5544078-3.4635638-3.4707861-3.4635638h-10.4525771v17.3232323h3.4783951v17.3232323c0 1.9131345 1.5576687 3.4646465 3.478395 3.4646465h10.4351852c1.9207263 0 3.4783951-1.551512 3.4783951-3.4646465v-4.7638889c-.3761015-14.0513068-6.6741706-16.2578535-6.9470072-26.4190119zm-30.2566965-14.3524527h-7.2592593c-1.0026852 0-1.81481482.81212963-1.81481482 1.81481481v5.44444445h10.88888892v-5.44444445c0-1.00268518-.8121297-1.81481481-1.8148148-1.81481481zm5.4444444 28.1296296h7.2592593v-17.2407407h-7.2592593z"/></g></g></svg>

<svg xmlns="http://www.w3.org/2000/svg" xmlns:xlink="http://www.w3.org/1999/xlink" width="80" height="80" viewBox="0 0 80 80">
  <defs>
    <path id="advanced-search-a" d="M0.5,13.84 C0.5,6.473 6.473,0.5 13.84,0.5 L62.16,0.5 C69.527,0.5 75.5,6.473 75.5,13.84 L75.5,62.16 C75.5,69.527 69.527,75.5 62.16,75.5 L13.84,75.5 C6.473,75.5 0.5,69.527 0.5,62.16 L0.5,13.84 Z"/>
    <linearGradient id="advanced-search-c" x1="50%" x2="50%" y1="0%" y2="100%">
      <stop offset="0%" stop-color="#3F6ABC"/>
      <stop offset="100%" stop-color="#1851BE"/>
    </linearGradient>
    <filter id="advanced-search-d" width="110.6%" height="110.6%" x="-5.3%" y="-5.3%" filterUnits="objectBoundingBox">
      <feGaussianBlur in="SourceGraphic" stdDeviation="1.05"/>
    </filter>
    <radialGradient id="advanced-search-e" cx="57.407%" cy="0%" r="133.013%" fx="57.407%" fy="0%" gradientTransform="matrix(0 1 -.87097 0 .574 -.574)">
      <stop offset="0%" stop-color="#FFF"/>
      <stop offset="100%" stop-color="#AEC3EB"/>
    </radialGradient>
    <filter id="advanced-search-f" width="106.9%" height="108%" x="-3.5%" y="-4%" filterUnits="objectBoundingBox">
      <feGaussianBlur in="SourceGraphic" stdDeviation=".65"/>
    </filter>
  </defs>
  <g fill="none" fill-rule="evenodd" transform="translate(0 2)">
    <g transform="translate(2)">
      <mask id="advanced-search-b" fill="#fff">
        <use xlink:href="#advanced-search-a"/>
      </mask>
      <path d="M0.5,13.84 C0.5,6.473 6.473,0.5 13.84,0.5 L62.16,0.5 C69.527,0.5 75.5,6.473 75.5,13.84 L75.5,62.16 C75.5,69.527 69.527,75.5 62.16,75.5 L13.84,75.5 C6.473,75.5 0.5,69.527 0.5,62.16 L0.5,13.84 Z" mask="url(#advanced-search-b)"/>
      <path d="M0.5,13.84 C0.5,6.473 6.473,0.5 13.84,0.5 L62.16,0.5 C69.527,0.5 75.5,6.473 75.5,13.84 L75.5,62.16 C75.5,69.527 69.527,75.5 62.16,75.5 L13.84,75.5 C6.473,75.5 0.5,69.527 0.5,62.16 L0.5,13.84 Z"/>
      <path d="M0.5,13.84 C0.5,6.473 6.473,0.5 13.84,0.5 L62.16,0.5 C69.527,0.5 75.5,6.473 75.5,13.84 L75.5,62.16 C75.5,69.527 69.527,75.5 62.16,75.5 L13.84,75.5 C6.473,75.5 0.5,69.527 0.5,62.16 L0.5,13.84 Z"/>
      <path fill="url(#advanced-search-c)" fill-rule="nonzero" stroke="#FFF" stroke-opacity=".01" stroke-width="1.68" d="M0.5,13.84 C0.5,6.473 6.473,0.5 13.84,0.5 L62.16,0.5 C69.527,0.5 75.5,6.473 75.5,13.84 L75.5,62.16 C75.5,69.527 69.527,75.5 62.16,75.5 L13.84,75.5 C6.473,75.5 0.5,69.527 0.5,62.16 L0.5,13.84 Z" filter="url(#advanced-search-d)"/>
      <path fill="url(#advanced-search-c)" fill-rule="nonzero" stroke="#FFF" stroke-opacity=".01" stroke-width="1.68" d="M0.5,13.84 C0.5,6.473 6.473,0.5 13.84,0.5 L62.16,0.5 C69.527,0.5 75.5,6.473 75.5,13.84 L75.5,62.16 C75.5,69.527 69.527,75.5 62.16,75.5 L13.84,75.5 C6.473,75.5 0.5,69.527 0.5,62.16 L0.5,13.84 Z"/>
    </g>
    <g fill="url(#advanced-search-e)" fill-rule="nonzero" transform="rotate(-30 53.156 13.206)">
      <path d="M46.2777778,1.81481481 C46.2777778,0.81212963 45.4656481,0 44.462963,0 L37.2037037,0 C36.2010185,0 35.3888889,0.81212963 35.3888889,1.81481481 L35.3888889,7.25925926 L46.2777778,7.25925926 L46.2777778,1.81481481 Z M6.94700714,14.3524527 C6.67417052,24.5136111 0.376101466,26.7201578 0,40.7714646 L0,45.5353535 C0,47.448488 1.55766879,49 3.47839506,49 L13.9135802,49 C15.8343065,49 17.3919753,47.448488 17.3919753,45.5353535 L17.3919753,28.2121212 L20.8703704,28.2121212 L20.8703704,10.8888889 L10.4177932,10.8888889 C8.50141493,10.8888889 6.99918306,12.4447317 6.94700714,14.3524527 Z M49.3122521,14.3524527 C49.2600762,12.4447317 47.7578443,10.8888889 45.841466,10.8888889 L35.3888889,10.8888889 L35.3888889,28.2121212 L38.867284,28.2121212 L38.867284,45.5353535 C38.867284,47.448488 40.4249527,49 42.345679,49 L52.7808642,49 C54.7015905,49 56.2592593,47.448488 56.2592593,45.5353535 L56.2592593,40.7714646 C55.8831578,26.7201578 49.5850887,24.5136111 49.3122521,14.3524527 Z M19.0555556,0 L11.7962963,0 C10.7936111,0 9.98148148,0.81212963 9.98148148,1.81481481 L9.98148148,7.25925926 L20.8703704,7.25925926 L20.8703704,1.81481481 C20.8703704,0.81212963 20.0582407,0 19.0555556,0 Z M24.5,28.1296296 L31.7592593,28.1296296 L31.7592593,10.8888889 L24.5,10.8888889 L24.5,28.1296296 Z" filter="url(#advanced-search-f)"/>
      <path d="M46.2777778,1.81481481 C46.2777778,0.81212963 45.4656481,0 44.462963,0 L37.2037037,0 C36.2010185,0 35.3888889,0.81212963 35.3888889,1.81481481 L35.3888889,7.25925926 L46.2777778,7.25925926 L46.2777778,1.81481481 Z M6.94700714,14.3524527 C6.67417052,24.5136111 0.376101466,26.7201578 0,40.7714646 L0,45.5353535 C0,47.448488 1.55766879,49 3.47839506,49 L13.9135802,49 C15.8343065,49 17.3919753,47.448488 17.3919753,45.5353535 L17.3919753,28.2121212 L20.8703704,28.2121212 L20.8703704,10.8888889 L10.4177932,10.8888889 C8.50141493,10.8888889 6.99918306,12.4447317 6.94700714,14.3524527 Z M49.3122521,14.3524527 C49.2600762,12.4447317 47.7578443,10.8888889 45.841466,10.8888889 L35.3888889,10.8888889 L35.3888889,28.2121212 L38.867284,28.2121212 L38.867284,45.5353535 C38.867284,47.448488 40.4249527,49 42.345679,49 L52.7808642,49 C54.7015905,49 56.2592593,47.448488 56.2592593,45.5353535 L56.2592593,40.7714646 C55.8831578,26.7201578 49.5850887,24.5136111 49.3122521,14.3524527 Z M19.0555556,0 L11.7962963,0 C10.7936111,0 9.98148148,0.81212963 9.98148148,1.81481481 L9.98148148,7.25925926 L20.8703704,7.25925926 L20.8703704,1.81481481 C20.8703704,0.81212963 20.0582407,0 19.0555556,0 Z M24.5,28.1296296 L31.7592593,28.1296296 L31.7592593,10.8888889 L24.5,10.8888889 L24.5,28.1296296 Z"/>
    </g>
  </g>
</svg>
